dashboard/assets/pic-182-2cf86f77883f9ad9.svg

<svg xmlns="http://www.w3.org/2000/svg" viewBox="0 0 12.09 11.05"><g data-name="图层 2"><path d="M12 8.36a2.16 2.16 0 00-2-1.59 2.14 2.14 0 00-1.63.76l-1.94-1.1V4.24a2.13 2.13 0 10-.77 0v2.19l-1.89 1.1a2.14 2.14 0 00-1.63-.76 2.1 2.1 0 00-1.07.29 2.14 2.14 0 102.14 3.7 2.1 2.1 0 001-1.3 2 2 0 000-1.27L6.05 7.1l1.89 1.09a2.15 2.15 0 00.94 2.57A2.13 2.13 0 0011.8 10a2.09 2.09 0 00.2-1.64zM4.67 2.14a1.38 1.38 0 111.38 1.37 1.37 1.37 0 01-1.38-1.37zM3.46 9.26a1.36 1.36 0 01-1.32 1 1.37 1.37 0 01-.69-2.56 1.39 1.39 0 01.69-.18 1.35 1.35 0 011.18.69 1.29 1.29 0 01.14 1.05zm7.68.34a1.39 1.39 0 01-1.19.68 1.33 1.33 0 01-.68-.18 1.35 1.35 0 01-.64-.84 1.29 1.29 0 01.14-1A1.35 1.35 0 0110 7.54a1.39 1.39 0 01.69.18 1.43 1.43 0 01.64.84 1.4 1.4 0 01-.19 1.04z" style="mix-blend-mode:color-dodge" fill="#d1d1d1" data-name="Layer 1"/></g></svg>

<svg xmlns="http://www.w3.org/2000/svg" viewBox="0 0 12.09 11.05"><defs><style>.cls-1{isolation:isolate;}.cls-2{fill:#d1d1d1;mix-blend-mode:color-dodge;}</style></defs><title>资源 1</title><g class="cls-1"><g id="图层_2" data-name="图层 2"><g id="Layer_1" data-name="Layer 1"><path class="cls-2" d="M12,8.36A2.16,2.16,0,0,0,10,6.77a2.14,2.14,0,0,0-1.63.76L6.43,6.43V4.24a2.13,2.13,0,1,0-.77,0V6.43L3.77,7.53a2.14,2.14,0,0,0-1.63-.76,2.1,2.1,0,0,0-1.07.29,2.14,2.14,0,1,0,2.14,3.7,2.1,2.1,0,0,0,1-1.3,2,2,0,0,0,0-1.27L6.05,7.1,7.94,8.19a2.15,2.15,0,0,0,.94,2.57A2.13,2.13,0,0,0,11.8,10,2.09,2.09,0,0,0,12,8.36ZM4.67,2.14A1.38,1.38,0,1,1,6.05,3.51,1.37,1.37,0,0,1,4.67,2.14ZM3.46,9.26a1.36,1.36,0,0,1-1.32,1,1.37,1.37,0,0,1-.69-2.56,1.39,1.39,0,0,1,.69-.18,1.35,1.35,0,0,1,1.18.69A1.29,1.29,0,0,1,3.46,9.26Zm7.68.34a1.39,1.39,0,0,1-1.19.68,1.33,1.33,0,0,1-.68-.18,1.35,1.35,0,0,1-.64-.84,1.29,1.29,0,0,1,.14-1A1.35,1.35,0,0,1,10,7.54a1.39,1.39,0,0,1,.69.18,1.43,1.43,0,0,1,.64.84A1.4,1.4,0,0,1,11.14,9.6Z"/></g></g></g></svg>
